public/assets/images/testimonials/12.svg

<svg width="152" height="36" viewBox="0 0 152 36" fill="none" xmlns="http://www.w3.org/2000/svg">
<path d="M133.517 12.1212C134.361 12.1212 135.058 11.6848 135.156 11.1192L135.991 1.69697C135.991 0.767677 134.896 0 133.517 0C132.139 0 131.052 0.767677 131.052 1.69697L131.887 11.1192C131.977 11.6768 132.674 12.1212 133.517 12.1212ZM128.408 15.0626C128.83 14.3354 128.798 13.5111 128.351 13.1475L120.582 7.71717C119.771 7.24848 118.563 7.81414 117.874 9.00202C117.184 10.1899 117.306 11.5152 118.109 11.9758L126.713 15.9677C127.257 16.1697 127.987 15.7818 128.408 15.0626ZM138.626 15.0545C139.048 15.7818 139.778 16.1697 140.321 15.9677L148.926 11.9758C149.737 11.5071 149.85 10.1818 149.169 9.00202C148.48 7.81414 147.263 7.25657 146.46 7.71717L138.691 13.1475C138.245 13.5111 138.213 14.3354 138.626 15.0545ZM133.517 23.8869C134.361 23.8869 135.058 24.3232 135.156 24.8889L135.991 34.303C135.991 35.2404 134.896 36 133.517 36C132.139 36 131.052 35.2404 131.052 34.303L131.887 24.8889C131.977 24.3232 132.674 23.8869 133.517 23.8869ZM138.626 20.9455C139.048 20.2182 139.778 19.8384 140.321 20.0323L148.926 24.0242C149.737 24.4929 149.85 25.8182 149.169 27.0061C148.48 28.1859 147.263 28.7515 146.46 28.2909L138.691 22.8687C138.245 22.4889 138.213 21.6727 138.626 20.9455ZM128.408 20.9374C128.83 21.6646 128.798 22.4889 128.351 22.8525L120.582 28.2747C119.771 28.7434 118.563 28.1778 117.874 26.9899C117.184 25.802 117.306 24.4768 118.109 24.0081L126.713 20.0162C127.257 19.8303 127.987 20.2101 128.408 20.9374Z" fill="#615EFC"/>
<path d="M84.5111 22.8358C84.5111 23.1267 84.4868 23.4257 84.4057 23.6843C84.0732 24.7752 82.946 25.6883 81.5349 25.6883C80.359 25.6883 79.4182 25.0176 79.4182 23.6115C79.4182 21.4539 81.8025 20.856 84.5111 20.8721V22.8358ZM88.7606 19.0782C88.7606 15.5226 87.236 12.3954 82.0863 12.3954C79.4426 12.3954 77.3421 13.1388 76.1987 13.7933L77.034 16.6539C78.0801 15.9913 79.7507 15.4499 81.3321 15.4499C83.9434 15.4418 84.3733 16.9287 84.3733 17.8741V18.1004C78.6803 18.0923 75.0714 20.056 75.0714 24.064C75.0714 26.5125 76.9042 28.7994 80.0913 28.7994C82.0539 28.7994 83.692 28.0236 84.6733 26.7711H84.7706C84.7706 26.7711 85.4194 29.4863 89.0039 28.4438C88.8174 27.3125 88.7525 26.1085 88.7525 24.662L88.7606 19.0782ZM0 7.55496C0 7.55496 3.72235 22.755 4.31436 25.2196C5.01179 28.0964 6.26068 29.163 9.86139 28.4438L12.1889 19.0216C12.7809 16.6782 13.1701 15.0135 13.5513 12.6297H13.6162C13.8838 15.0378 14.265 16.6863 14.7434 19.0297C14.7434 19.0297 15.6923 23.3045 16.1707 25.5509C16.6573 27.7974 18.0116 29.2115 21.5393 28.4438L27.0783 7.55496H22.6098L20.7203 16.5893C20.2094 19.2156 19.7471 21.2762 19.3984 23.6762H19.3335C19.0091 21.2923 18.5955 19.3206 18.0846 16.759L16.114 7.55496H11.459L9.35048 16.5247C8.75036 19.256 8.1989 21.4539 7.84207 23.7731H7.7772C7.41226 21.5832 6.92568 18.8196 6.40666 16.1772C6.40666 16.1772 5.15777 9.76102 4.71984 7.54688L0 7.55496ZM35.5367 22.8358C35.5367 23.1267 35.5123 23.4257 35.4313 23.6843C35.0988 24.7752 33.9715 25.6883 32.5604 25.6883C31.3845 25.6883 30.4438 25.0176 30.4438 23.6115C30.4438 21.4539 32.828 20.856 35.5367 20.8721V22.8358ZM39.7943 19.0782C39.7943 15.5226 38.2696 12.3954 33.12 12.3954C30.4762 12.3954 28.3758 13.1388 27.2324 13.7933L28.0677 16.6539C29.1138 15.9913 30.7844 15.4499 32.3658 15.4499C34.9852 15.4418 35.4069 16.9287 35.4069 17.8741V18.1004C29.7058 18.0923 26.1051 20.056 26.1051 24.064C26.1051 26.5125 27.9379 28.7994 31.125 28.7994C33.0876 28.7994 34.7257 28.0236 35.707 26.7711H35.8043C35.8043 26.7711 36.4531 29.4863 40.0457 28.4438C39.8591 27.3125 39.7943 26.1085 39.7943 24.662V19.0782ZM46.8903 24.0075V7.55496H42.6327V28.4438H46.8903V24.0075ZM102.596 7.55496V22.9651C102.596 25.0903 103.001 26.5772 103.853 27.4903C104.607 28.2903 105.84 28.7994 107.316 28.7994C108.573 28.7994 109.813 28.557 110.397 28.3469L110.34 25.0337C109.903 25.1388 109.408 25.2277 108.727 25.2277C107.275 25.2277 106.788 24.2984 106.788 22.3913V16.4923H110.495V12.4923H106.788V7.55496H102.596ZM91.599 12.7509V28.4438H95.9944V20.4115C95.9944 19.9752 96.0188 19.5954 96.0918 19.256C96.4162 17.5752 97.7056 16.5004 99.5627 16.5004C100.074 16.5004 100.439 16.557 100.828 16.6135V12.5085C100.495 12.4438 100.268 12.4115 99.8628 12.4115C98.2246 12.4115 96.3594 13.462 95.5727 15.7247H95.4511V12.7671H91.599M49.8665 12.7509V28.4438H54.1484V19.2398C54.1484 18.8115 54.1971 18.3509 54.3512 17.955C54.708 17.0257 55.5676 15.9428 56.9544 15.9428C58.6817 15.9428 59.4927 17.3974 59.4927 19.4984V28.4438H63.7665V19.1267C63.7665 18.7146 63.8233 18.2216 63.9449 17.858C64.2937 16.8075 65.2263 15.9428 66.5157 15.9428C68.2674 15.9428 69.1027 17.3731 69.1027 19.8459V28.4438H73.3846V19.1994C73.3846 14.3267 70.9031 12.3954 68.0971 12.3954C66.8563 12.3954 65.875 12.7024 64.9911 13.2438C64.245 13.7045 63.58 14.3509 62.9961 15.1994H62.9312C62.2581 13.5105 60.6605 12.3954 58.5925 12.3954C55.9326 12.3954 54.7323 13.7368 54.0025 14.8842H53.9295V12.7509H49.8665Z" fill="#615EFC"/>
</svg>

<svg xmlns="http://www.w3.org/2000/svg" width="152" height="36" fill="none" viewBox="0 0 152 36"><path fill="#615efc" d="M133.517 12.121c.844 0 1.541-.436 1.639-1.002l.835-9.422c0-.93-1.095-1.697-2.474-1.697-1.378 0-2.465.768-2.465 1.697l.835 9.422c.09.558.787 1.002 1.63 1.002m-5.109 2.942c.422-.728.39-1.552-.057-1.915l-7.769-5.43c-.811-.47-2.019.096-2.708 1.284s-.568 2.513.235 2.974l8.604 3.992c.544.202 1.274-.186 1.695-.905m10.218-.008c.422.727 1.152 1.115 1.695.913l8.605-3.992c.811-.469.924-1.794.243-2.974-.689-1.188-1.906-1.745-2.709-1.285l-7.769 5.43c-.446.364-.478 1.188-.065 1.908m-5.109 8.832c.844 0 1.541.436 1.639 1.002l.835 9.414c0 .937-1.095 1.697-2.474 1.697-1.378 0-2.465-.76-2.465-1.697l.835-9.414c.09-.566.787-1.002 1.63-1.002m5.109-2.942c.422-.727 1.152-1.107 1.695-.913l8.605 3.992c.811.469.924 1.794.243 2.982-.689 1.18-1.906 1.745-2.709 1.285l-7.769-5.422c-.446-.38-.478-1.196-.065-1.924m-10.218-.008c.422.728.39 1.552-.057 1.915l-7.769 5.423c-.811.468-2.019-.097-2.708-1.285s-.568-2.513.235-2.982l8.604-3.992c.544-.186 1.274.194 1.695.921m-43.897 1.899c0 .29-.024.59-.105.848-.333 1.091-1.46 2.004-2.871 2.004-1.176 0-2.117-.67-2.117-2.076 0-2.158 2.384-2.756 5.093-2.74zm4.25-3.758c0-3.555-1.525-6.683-6.675-6.683-2.643 0-4.744.744-5.887 1.398l.835 2.86c1.046-.662 2.717-1.203 4.298-1.203 2.611-.008 3.041 1.479 3.041 2.424v.226c-5.693-.008-9.302 1.956-9.302 5.964 0 2.448 1.833 4.735 5.02 4.735 1.963 0 3.601-.775 4.582-2.028h.098s.648 2.715 4.233 1.673c-.187-1.131-.252-2.335-.252-3.782zM0 7.555s3.722 15.2 4.314 17.665c.698 2.876 1.947 3.943 5.547 3.224l2.328-9.422c.592-2.344.981-4.008 1.362-6.392h.065c.268 2.408.649 4.056 1.127 6.4 0 0 .95 4.275 1.428 6.52.486 2.247 1.84 3.662 5.368 2.894l5.54-20.889h-4.47l-1.889 9.034c-.51 2.627-.973 4.687-1.322 7.087h-.064c-.325-2.384-.738-4.355-1.25-6.917l-1.97-9.204h-4.655l-2.109 8.97c-.6 2.731-1.151 4.929-1.508 7.248h-.065c-.365-2.19-.851-4.953-1.37-7.596 0 0-1.25-6.416-1.687-8.63zm35.537 15.28c0 .292-.025.59-.106.85-.332 1.09-1.46 2.003-2.87 2.003-1.177 0-2.117-.67-2.117-2.076 0-2.158 2.384-2.756 5.093-2.74zm4.257-3.757c0-3.555-1.524-6.683-6.674-6.683-2.644 0-4.744.744-5.888 1.398l.836 2.86c1.046-.662 2.716-1.203 4.298-1.203 2.62-.008 3.04 1.479 3.04 2.424v.226c-5.7-.008-9.3 1.956-9.3 5.964 0 2.448 1.832 4.735 5.019 4.735 1.963 0 3.6-.775 4.582-2.028h.097s.65 2.715 4.242 1.673c-.187-1.131-.252-2.335-.252-3.782zm7.096 4.93V7.555h-4.257v20.889h4.257zm55.706-16.453v15.41c0 2.125.405 3.612 1.257 4.525.754.8 1.987 1.31 3.463 1.31 1.257 0 2.497-.243 3.081-.453l-.057-3.313a6.5 6.5 0 0 1-1.613.194c-1.452 0-1.939-.93-1.939-2.837v-5.899h3.707v-4h-3.707V7.555zm-10.997 5.196v15.693h4.395v-8.032c0-.437.025-.817.098-1.156.324-1.68 1.614-2.756 3.47-2.756.512 0 .877.057 1.266.113V12.51a4.4 4.4 0 0 0-.965-.098c-1.638 0-3.504 1.051-4.29 3.314h-.122v-2.958H91.6m-41.732-.016v15.693h4.281V19.24c0-.428.05-.89.203-1.285.357-.93 1.217-2.012 2.603-2.012 1.728 0 2.539 1.454 2.539 3.555v8.946h4.273v-9.317c0-.412.057-.905.179-1.269.349-1.05 1.281-1.915 2.57-1.915 1.752 0 2.588 1.43 2.588 3.903v8.598h4.282v-9.245c0-4.872-2.482-6.804-5.288-6.804-1.24 0-2.222.307-3.106.849-.746.46-1.411 1.107-1.995 1.955h-.065c-.673-1.688-2.27-2.804-4.338-2.804-2.66 0-3.86 1.342-4.59 2.49h-.074V12.75z"/></svg>
